X: 2378
T: Polska efter Olof Andersson
S: efter Olof Andersson
O: Glöte, Härjedalen
B: EÖ, nr 672
R: Polska
Z: Nils L
M: 3/4
L: 1/8
K: Dm
A>^c d2   d>c | de (3faf e2- | e->E F2 (F{/G}F/E/      | F)>G A2 A2- |
A>^c (cd) d>c | de (3faf e2- | e>E  F2 (F3/2{/G}F/4E/4 | F)>G A4     ::
A>a (3^g=bg a2 | e>d (3^cec A2 | Aa  (3^g=bg a2  | e>d     (3^cec A2  |
Aa  (3^g=bg a2 | e>d (d^c)  c2 | d>e (3f>af  e>d | ^c=B/c/ [dD]4     :|
(:musicend:)
(:music:)
